assets/imagenes/soundOff.svg

<svg width="43" height="32" viewBox="0 0 43 32" fill="none" xmlns="http://www.w3.org/2000/svg">
<path d="M30 11.4749C31.9355 13.4104 33.2694 15.6604 35.6849 16.9487C36.8958 17.5945 41.3962 19.966 41.3962 21.4465" stroke="#0047FF" stroke-width="3" stroke-linecap="round"/>
<path d="M39.7343 11C36.8231 13.1349 34.2054 16.8266 32.5457 20.0484C32.2019 20.7158 31.6068 22.4146 30.9497 22.6336" stroke="#0047FF" stroke-width="3" stroke-linecap="round"/>
<path d="M4.59417 11.4508H2.10132L2.10125 17.5182C2.10125 18.4822 1.91776 20 2.35187 20.7234C2.65267 21.2248 2.07544 22.3722 2.35187 22.3722H7.49996C8.92931 22.3722 11.2405 25.4792 12.5 26.039C15.9584 27.5761 18.262 28.1099 21.5697 30C22.1234 30.3164 22.0446 26.7132 22.0446 26.039V21.2378V16.4367C22.0446 14.6158 22.3561 12.3927 22.0314 10.6067C21.6531 8.52593 21.5697 6.22573 21.5697 4.09079C21.5697 3.63686 21.3524 1.75616 21.0421 2.00677C20.5855 2.3756 19.7373 2.81747 19.1955 3.08835C17.6313 3.87048 16.2148 4.91661 14.7373 5.88464C13.7119 6.55642 12.5856 7.00691 11.5717 7.6521C10.7569 8.17058 8.76178 8.72456 8.27419 9.57785C7.26181 11.3495 6.4826 11.4508 4.59417 11.4508Z" stroke="#0047FF" stroke-width="3" stroke-linecap="round"/>
</svg>

<?xml version="1.0" encoding="utf-8"?>
<!-- Generator: Adobe Illustrator 26.0.0, SVG Export Plug-In . SVG Version: 6.00 Build 0)  -->
<svg version="1.1" id="Capa_1" xmlns="http://www.w3.org/2000/svg" xmlns:xlink="http://www.w3.org/1999/xlink" x="0px" y="0px"
	 viewBox="0 0 43 32" style="enable-background:new 0 0 43 32;" xml:space="preserve">
<style type="text/css">
	.st0{fill:none;stroke:#FFFFFF;stroke-width:3;stroke-linecap:round;}
</style>
<path class="st0" d="M30,11.5c1.9,1.9,3.3,4.2,5.7,5.5c1.2,0.6,5.7,3,5.7,4.5"/>
<path class="st0" d="M39.7,11c-2.9,2.1-5.5,5.8-7.2,9c-0.3,0.7-0.9,2.4-1.6,2.6"/>
<path class="st0" d="M4.6,11.5H2.1l0,6.1c0,1-0.2,2.5,0.3,3.2c0.3,0.5-0.3,1.6,0,1.6h5.1c1.4,0,3.7,3.1,5,3.7c3.5,1.5,5.8,2.1,9.1,4
	c0.6,0.3,0.5-3.3,0.5-4v-4.8v-4.8c0-1.8,0.3-4,0-5.8c-0.4-2.1-0.5-4.4-0.5-6.5c0-0.5-0.2-2.3-0.5-2.1c-0.5,0.4-1.3,0.8-1.8,1.1
	c-1.6,0.8-3,1.8-4.5,2.8c-1,0.7-2.2,1.1-3.2,1.8c-0.8,0.5-2.8,1.1-3.3,1.9C7.3,11.3,6.5,11.5,4.6,11.5z"/>
</svg>
